www/assets/icons/data_object.svg

<svg xmlns="http://www.w3.org/2000/svg" width="24" height="24" viewBox="0 0 24 24" fill='currentColor'><path d="M4 7v2c0 .55-.45 1-1 1H2v4h1c.55 0 1 .45 1 1v2c0 1.65 1.35 3 3 3h3v-2H7c-.55 0-1-.45-1-1v-2c0-1.3-.84-2.42-2-2.83v-.34C5.16 11.42 6 10.3 6 9V7c0-.55.45-1 1-1h3V4H7C5.35 4 4 5.35 4 7m17 3c-.55 0-1-.45-1-1V7c0-1.65-1.35-3-3-3h-3v2h3c.55 0 1 .45 1 1v2c0 1.3.84 2.42 2 2.83v.34c-1.16.41-2 1.52-2 2.83v2c0 .55-.45 1-1 1h-3v2h3c1.65 0 3-1.35 3-3v-2c0-.55.45-1 1-1h1v-4z"/></svg>

<svg width="24" height="24" viewBox="0 0 24 24" xmlns="http://www.w3.org/2000/svg" fill='currentColor'><path d="M4 7V9C4 9.55 3.55 10 3 10H2V14H3C3.55 14 4 14.45 4 15V17C4 18.65 5.35 20 7 20H10V18H7C6.45 18 6 17.55 6 17V15C6 13.7 5.16 12.58 4 12.17V11.83C5.16 11.42 6 10.3 6 9V7C6 6.45 6.45 6 7 6H10V4H7C5.35 4 4 5.35 4 7Z"/><path d="M21 10C20.45 10 20 9.55 20 9V7C20 5.35 18.65 4 17 4H14V6H17C17.55 6 18 6.45 18 7V9C18 10.3 18.84 11.42 20 11.83V12.17C18.84 12.58 18 13.69 18 15V17C18 17.55 17.55 18 17 18H14V20H17C18.65 20 20 18.65 20 17V15C20 14.45 20.45 14 21 14H22V10H21Z"/></svg>
